fs/text_align_right_24_filled.svg

<svg viewBox="0 0 24 24" fill="none" xmlns="http://www.w3.org/2000/svg" height="1em" width="1em">
  <path d="M5 6C5 5.44772 5.44772 5 6 5H21C21.5523 5 22 5.44772 22 6C22 6.55228 21.5523 7 21 7H6C5.44772 7 5 6.55228 5 6ZM9 18C9 17.4477 9.44772 17 10 17H21C21.5523 17 22 17.4477 22 18C22 18.5523 21.5523 19 21 19H10C9.44772 19 9 18.5523 9 18ZM3 11C2.44772 11 2 11.4477 2 12C2 12.5523 2.44772 13 3 13H21C21.5523 13 22 12.5523 22 12C22 11.4477 21.5523 11 21 11H3Z" fill="#212121"/>
</svg>

<svg viewBox="0 0 24 24" fill="none" xmlns="http://www.w3.org/2000/svg" height="1em" width="1em">
  <path d="M5 6a1 1 0 0 1 1-1h15a1 1 0 1 1 0 2H6a1 1 0 0 1-1-1Zm4 12a1 1 0 0 1 1-1h11a1 1 0 1 1 0 2H10a1 1 0 0 1-1-1Zm-6-7a1 1 0 1 0 0 2h18a1 1 0 1 0 0-2H3Z" fill="#212121"/>
</svg>
